src/assets/img/purpleProjectShadow.svg

<svg width="385" height="516" fill="none" xmlns="http://www.w3.org/2000/svg"><g filter="url(#a)"><path d="M249.991 357.74a744.048 744.048 0 0 1-22.022 7.554c-48.232 7.725-5.479.683 12.581 13.661 8.905 6.399 14.367-8.145 9.441-21.215 77.676-27.983 182.991-79.893 112.125-112.502-97.336-44.79-101.105-55.114-115.844-87.801-14.738-32.686-65.859-103.673-100.78-52.75-34.92 50.922-44.76 74.207-43.373 105.259 1.386 31.053 61.013 44.142 4.474 87.67-56.54 43.528 17.084 173.803 78.156 117.509 61.073-56.293-58.595-40.994 9.582-68.67 34.557-14.029 50.597-2.15 55.66 11.285Z" fill="#4B47FF"/></g><defs><filter id="a" x=".363" y=".85" width="471.173" height="514.155" filterUnits="userSpaceOnUse" color-interpolation-filters="sRGB"><feFlood flood-opacity="0" result="BackgroundImageFix"/><feBlend in="SourceGraphic" in2="BackgroundImageFix" result="shape"/><feGaussianBlur stdDeviation="43" result="effect1_foregroundBlur_382_3901"/></filter></defs></svg>

<svg width="385" height="516" viewBox="0 0 385 516" fill="none" xmlns="http://www.w3.org/2000/svg">
<g filter="url(#filter0_f_382_3901)">
<path d="M249.991 357.74C242.315 360.506 234.909 363.037 227.969 365.294C179.737 373.019 222.49 365.977 240.55 378.955C249.455 385.354 254.917 370.81 249.991 357.74C327.667 329.757 432.982 277.847 362.116 245.238C264.78 200.448 261.011 190.124 246.272 157.437C231.534 124.751 180.413 53.7638 145.492 104.687C110.572 155.609 100.732 178.894 102.119 209.946C103.505 240.999 163.132 254.088 106.593 297.616C50.0537 341.144 123.677 471.419 184.749 415.125C245.822 358.832 126.154 374.131 194.331 346.455C228.888 332.426 244.928 344.305 249.991 357.74Z" fill="#4B47FF"/>
</g>
<defs>
<filter id="filter0_f_382_3901" x="0.362854" y="0.849609" width="471.173" height="514.155" filterUnits="userSpaceOnUse" color-interpolation-filters="sRGB">
<feFlood flood-opacity="0" result="BackgroundImageFix"/>
<feBlend mode="normal" in="SourceGraphic" in2="BackgroundImageFix" result="shape"/>
<feGaussianBlur stdDeviation="43" result="effect1_foregroundBlur_382_3901"/>
</filter>
</defs>
</svg>
